pro/src/icons/stroke-home.svg

<svg width="48" height="48" viewBox="0 0 48 48" fill="none" xmlns="http://www.w3.org/2000/svg">
<path id="icon" d="M21.8859 3.87063C23.0562 2.70693 24.9459 2.70743 26.1156 3.87212L32 9.73141V7.15961C32 6.05565 32.9018 5.16388 34 5.16388H37C38.0982 5.16388 39 6.05565 39 7.15961V16.6947L40.8773 18.5212L40.8851 18.5288C40.8917 18.5354 40.8983 18.5421 40.9048 18.549C41.6114 19.2923 42 20.2658 42 21.2891V41.0146C42 43.2238 40.2082 45.0018 38 45.0018H28C27.5858 45.0018 27.2304 44.7499 27.0786 44.391C27.028 44.2714 27 44.1399 27 44.0018C27 44.0018 27 44.0018 27 44.0018V30.0662L21.0006 30.0657L21 44.0017C21 44.554 20.5523 45.0017 20 45.0017H10C7.79175 45.0017 6 43.2238 6 41.0145V21.2891C6 20.2658 6.38862 19.2923 7.09518 18.5489C7.10177 18.542 7.10846 18.5351 7.11524 18.5284L15.5852 10.1145C15.9771 9.72524 16.6102 9.72734 16.9995 10.1192C17.3887 10.511 17.3866 11.1441 16.9948 11.5334L8.53595 19.9362C8.18817 20.3067 8 20.7832 8 21.2891V41.0145C8 42.1111 8.88825 43.0017 10 43.0017H19V30.0615C19 28.9575 19.9018 28.0657 21 28.0657H27C28.0982 28.0657 29 28.9575 29 30.0615V43.0018H38C39.1118 43.0018 40 42.1112 40 41.0146V21.2891C40 20.7849 39.813 20.3097 39.4673 19.9397L37.3027 17.8338C37.1968 17.7307 37.1186 17.6099 37.0682 17.4807C37.0246 17.3692 37.0005 17.2479 37 17.1211L37 17.1169V7.16439L34.0006 7.16388L34 11.7228L34.7056 12.4254C35.097 12.8151 35.0983 13.4482 34.7086 13.8396C34.3189 14.231 33.6858 14.2323 33.2944 13.8426L32.3016 12.854L32.2944 12.847L24.7044 5.28935C24.3146 4.90119 23.6854 4.90119 23.2956 5.28935L23.2928 5.29209L20.7028 7.85111C20.31 8.23928 19.6768 8.23547 19.2887 7.84261C18.9005 7.44974 18.9043 6.81659 19.2972 6.42842L21.8859 3.87063Z" fill="currentColor"/>
</svg>

<svg xmlns="http://www.w3.org/2000/svg" width="48" height="48" fill="none"><path id="icon" fill="currentColor" d="M21.886 3.87a3 3 0 0 1 4.23.002L32 9.732V7.16a2 2 0 0 1 2-1.996h3a2 2 0 0 1 2 1.996v9.535l1.877 1.826.008.008.02.02A3.96 3.96 0 0 1 42 21.289v19.726a3.99 3.99 0 0 1-4 3.987H28a1 1 0 0 1-1-1V30.066h-6v13.936a1 1 0 0 1-1 1H10a3.99 3.99 0 0 1-4-3.988V21.29a3.96 3.96 0 0 1 1.115-2.76l8.47-8.414a1 1 0 0 1 1.41 1.418l-8.46 8.403c-.347.37-.535.847-.535 1.353v19.725a1.99 1.99 0 0 0 2 1.988h9v-12.94a2 2 0 0 1 2-1.996h6a2 2 0 0 1 2 1.995v12.94h9c1.112 0 2-.89 2-1.986V21.289c0-.504-.187-.98-.533-1.35l-2.164-2.105A1 1 0 0 1 37 17.12V7.164h-3v4.559l.706.702a1 1 0 1 1-1.412 1.418l-.992-.989-.008-.007-7.59-7.558a1 1 0 0 0-1.408 0l-.003.003-2.59 2.56a1 1 0 1 1-1.406-1.424z"/></svg>
